X:1
T:Good For the Tongue -- Hornpipe
Z:Bob Puckette <bpuckette:msn.com> 2003-3-10
R:hornpipe
B:Cole's 1000 Fiddle Tunes
M:2/4
L:1/16
K:Bb
vF2|Bcde .f(BAB)|gBaB .b(BAB)|GeFd EcDB|cdec BAGF|
Bcde .f(BAB)|gBaB .b(BAB)|GeFd EcDB|dcBA B2:|
|:(vde)|.f(BAB) .g(BAB)|babg gfed|g^fgd edeG|cdec BAGF|
Bcde .f(BAB)|gBaB .b(BAB)|GeFd EcDB|dcBA B2:|
